!!!COM:	Ockeghem, Johannes
!!!CDT:	~1425-1497/02/06
!!!OPR:	Missa Mi mi
!!!ONM:	5
!!!OTL:	Agnus Dei
!!!AGN:	Mass; Agnus Dei
!!!SCT:	Ock1010e
!!!voices:	4
!!!voices-OPR:	4
**kern	**kern	**kern	**kern
*staff4	*staff3	*staff2	*staff1
*Ivox	*Ivox	*Ivox	*Ivox
*I"Bassus	*I"Tenor	*I"Altus	*I"Superius
*I'B	*I'T	*I'A	*I'S
*>[A,B,C]	*>[A,B,C]	*>[A,B,C]	*>[A,B,C]
*>A	*>A	*>A	*>A
*clefF4	*clefGv2	*clefGv2	*clefG2
*k[]	*k[]	*k[]	*k[]
*M3/1	*M3/1	*M3/1	*M3/1
*met(O)	*met(O)	*met(O)	*met(O)
=1-	=1-	=1-	=1-
!!section: Agnus Dei I
!!!OMD: Agnus Dei I
1.E	0E	0B	0e
2AA/	.	.	.
1AA	1A	1c	1f
=2	=2	=2	=2
1E	1G	1B	1g
0F	1.c	0A	1.a
.	4B\	.	4g/
.	4A/	.	4f/
=3	=3	=3	=3
1E	1B	1.e	0g
1r	1E	.	.
.	.	2c\	.
1E	1r	2c\	1g
.	.	2B\	.
=4	=4	=4	=4
1D	1F	0.d	1a
0GG	0G	.	1.b
.	.	.	2a/
=5	=5	=5	=5
1C	1.G	1e	1cc
0G	.	0d	1.b
.	2A/	.	.
.	1B	.	.
.	.	.	2a/
=6	=6	=6	=6
1A	1c	2c\	1a
.	.	1e	.
0E	1G	.	2b\
.	.	4d\	1g
.	.	4c\	.
.	1r	1B	.
.	.	.	4f/
.	.	.	4g/
=7	=7	=7	=7
!!linebreak:original
1.F	2r	1A	1.a
.	1D	.	.
.	.	1d	.
2D\	2A/	.	2f/
1E	2G/	2.c\	1g
.	2E/	.	.
.	.	4B\	.
=8	=8	=8	=8
1D	1F	0.d	1a
1r	0G	.	0b
1G	.	.	.
=9	=9	=9	=9
1E	1B	1e	1g
0F	1A	2.c\	1.a
.	.	4B\	.
.	1c	1A	.
.	.	.	2f/
=10	=10	=10	=10
1G	1B	1G	2e/
.	.	.	1d
0D	0A	0d	.
.	.	.	2g/
.	.	.	2.f/
.	.	.	4e/
=11	=11	=11	=11
1.E	2r	2c\	1g
.	1G	1B	.
.	.	.	1r
2C/	2E/	1A	.
1BB	1D	.	1g
.	.	2G/	.
=12	=12	=12	=12
1.AA	1E	2.A/	1.c
.	.	4F/	.
.	1r	2E/	.
2BB/	.	2D/	2d/
2C/	1r	2r	1e
[2AA/	.	[2A/	.
=13	=13	=13	=13
2AA/]	0.r	2A/]	1f
2D\	.	2B\	.
2C/	.	2c\	2e/
2D\	.	1A	2.d/
1F	.	.	.
.	.	.	4c/
.	.	2D/	2A/
=14	=14	=14	=14
!!linebreak:original
2E\	0.r	2E/	2G/
2D\	.	1F	1B
2AA/	.	.	.
2C/	.	1E	1A
1BB	.	.	.
.	.	2D/	2G#i/
=15	=15	=15	=15
1AA	2.c\	2E/	1A
.	.	2F/	.
.	4A/	.	.
1r	2G/	1G	2B/
.	2B\	.	1d
1AA	1A	1E	.
.	.	.	2c/
=16	=16	=16	=16
2BB/	1D	2r	2.d/
1D	.	1F	.
.	.	.	4e/
.	1r	.	2f/
2C/	.	2E/	1g
1D	1A	1D	.
.	.	.	2f/
=17	=17	=17	=17
2E\	1.G	0.r	1g
1G	.	.	.
.	.	.	2e/
2F\	2A/	.	2f/
1G	1B	.	1d
=18	=18	=18	=18
1A	2c\	0.r	2r
.	2A/	.	2c/
1G	1B	.	2d/
.	.	.	1e
2A\	2.c\	.	.
[2E\	.	.	2c/
.	8B/L	.	.
.	8A/J	.	.
=19	=19	=19	=19
2E\]	2G/	1.E	2B/
1AA	2A/	.	2.c/
.	1c	.	.
.	.	.	4A/
4C/	.	2F/	1A
4D\	.	.	.
1E	1B	1G	.
.	.	.	2G/
=20	=20	=20	=20
1AA	1A	1E	1c
2GG/	2B\	1G	2d/
2C/	2c\	.	2e/
2D\	2A/	1r	2f/
[2E\	2G/	.	[2g/
=21	=21	=21	=21
!!pagebreak:original
4E\]	2c\	2r	2g/]
4F\	.	.	.
2.G\	2B\	2G/	2e/
.	4G/	1d	2d/
4F\	2A/	.	.
2D\	.	.	2f/
.	4F/	.	.
2E\	2E/	2e\	2g/
2F\	[2D/	2A/	[2a/
=22	=22	=22	=22
1D	2D/]	1d	4a/]
.	.	.	4g/
.	2.F/	.	1a
2F\	.	2.A/	.
.	4D/	.	.
2E\	2E/	.	2g/
.	.	4B\	.
2.A\	1AA	1c	4e/
.	.	.	2f/
4G\	.	.	4d/
=23	=23	=23	=23
2E\	2r	2c\	2c/
2D\	2A/	2.d\	2f/
2E\	1G	.	2g/
.	.	4B\	.
2G\	.	2B\	1e
1F	1A	4c\	.
.	.	2A/	.
.	.	.	2d/
.	.	4G/	.
=24	=24	=24	=24
0.El	0.El	1B	0.el
.	.	1c	.
.	.	1Bl	.
!!LO:LB:i:g=z
=25||	=25||	=25||	=25||
*>B	*>B	*>B	*>B
!!section: Agnus Dei II
!!!OMD: Agnus Dei II
*M3/1	*M3/1	*M3/1	*M3/1
*met(O)	*met(O)	*met(O)	*met(O)
1.E	0.r	0B	0.r
2AA/	.	.	.
1AA	.	1c	.
=26	=26	=26	=26
1E	0.r	2B\	0.r
.	.	1c	.
2F\	.	.	.
1A	.	2A/	.
.	.	1B	.
2G\	.	.	.
=27	=27	=27	=27
2A\	0.r	0.A	0.r
1F	.	.	.
4E\	.	.	.
4D\	.	.	.
2C/	.	.	.
2D\	.	.	.
=28	=28	=28	=28
!!linebreak:original
2AA/	0.r	1A	0.r
2D\	.	.	.
2E\	.	2G/	.
1D	.	2F/	.
.	.	1E	.
2C/	.	.	.
=29	=29	=29	=29
2BB/	0.r	0D	0.r
1GG	.	.	.
2BB/	.	.	.
2AA/	.	1C	.
4GG/	.	.	.
4AA/	.	.	.
=30	=30	=30	=30
2BB/	0.r	1D	0.r
1GG	.	.	.
.	.	2G/	.
2.D\	.	2F/	.
.	.	2G/	.
4BB/	.	.	.
2C/	.	2E/	.
=31	=31	=31	=31
2D\	0.r	2F/	0.r
2GG/	.	1D	.
2BB/	.	.	.
2C/	.	2G/	.
2AA/	.	2F/	.
2D\	.	4E/	.
.	.	4F/	.
=32	=32	=32	=32
2C/	0.r	1.G	0.r
1E	.	.	.
4D\	.	4F/	.
4C/	.	4E/	.
2D\	.	2F/	.
2BB/	.	2G/	.
=33	=33	=33	=33
2C/	0.r	1A	0.r
2AA/	.	.	.
2GG/	.	2B\	.
2AA/	.	1A	.
1BB	.	.	.
.	.	2G#i/	.
=34	=34	=34	=34
1AA	0.r	0A	0.r
1r	.	.	.
1C	.	1r	.
=35	=35	=35	=35
!!linebreak:original
1.C	0.r	0G	0.r
2BB/	.	.	.
2C/	.	1A	.
2AA/	.	.	.
=36	=36	=36	=36
1GG	0.r	1B	0.r
1C	.	2A/	.
.	.	1G	.
2E\	.	.	.
[2F\	.	[2A/	.
=37	=37	=37	=37
2F\]	0.r	4A/]	0.r
.	.	4B\	.
2E\	.	1c	.
1C	.	.	.
.	.	2A/	.
1D	.	1B	.
=38	=38	=38	=38
2C/	0.r	1.c	0.r
2E\	.	.	.
2F\	.	.	.
1G	.	2B\	.
.	.	1A	.
2F\	.	.	.
=39	=39	=39	=39
1G	0.r	2B\	0.r
.	.	1G	.
1C	.	.	.
.	.	2c\	.
1G	.	2B\	.
.	.	[2A/	.
=40	=40	=40	=40
2F\	0.r	2A/]	0.r
1E	.	2G/	.
.	.	1E	.
2C/	.	.	.
1BB	.	1D	.
=41	=41	=41	=41
1AA	0.r	1A	0.r
1E	.	1G	.
1D	.	1A	.
=42	=42	=42	=42
!!linebreak:original
1E	0.r	1c	0.r
1G	.	1B	.
1F	.	2.A/	.
.	.	4B\	.
=43	=43	=43	=43
2.E\	0.r	4c\	0.r
.	.	4d\	.
.	.	1e	.
4F\	.	.	.
4G\	.	.	.
4A\	.	.	.
1A	.	2c\	.
.	.	1B	.
2G\	.	.	.
=44	=44	=44	=44
2A\	0.r	1A	0.r
2F\	.	.	.
2E\	.	2e\	.
2G\	.	1e	.
1F	.	.	.
.	.	2d\	.
=45	=45	=45	=45
1E	0.r	2e\	0.r
.	.	2c\	.
1G	.	2B\	.
.	.	2d\	.
2C/	.	1c	.
2F\	.	.	.
=46	=46	=46	=46
2G\	0.r	1B	0.r
1E	.	.	.
.	.	2G/	.
2C/	.	1A	.
2D\	.	.	.
2BB/	.	2G/	.
=47	=47	=47	=47
1AA	0.r	2.c\	0.r
.	.	4A/	.
2GG/	.	2B\	.
2C/	.	1A	.
2D\	.	.	.
2F\	.	2d\	.
=48	=48	=48	=48
2E\	0.r	2c\	0.r
2D\	.	1B	.
1AA	.	.	.
.	.	1A	.
1BB	.	.	.
.	.	2G#i/	.
=49	=49	=49	=49
!!pagebreak:original
0AA	0.r	0A	1.c
.	.	.	4B/
.	.	.	4A/
[1C	.	[1E	1G
=50	=50	=50	=50
2C/]	0.r	1E]	1.c
2AA/	.	.	.
2AA/	.	0F	.
2FF/	.	.	1d
2AA/	.	.	.
2BB-i/	.	.	4c/
.	.	.	4d/
=51	=51	=51	=51
2GG/	0.r	1.E	1e
1C	.	.	.
.	.	.	1g
2BB/	.	2D/	.
1AA	.	1F	1a
=52	=52	=52	=52
1GG	0.r	1G	1b
1.C	.	2A/	2a/
.	.	2.c\	2g/
.	.	.	1cc
.	.	4B\	.
2D\	.	2A/	.
=53	=53	=53	=53
1E	0.r	1G	2b\
.	.	.	2g/
1C	.	1c	2a/
.	.	.	1g
1r	.	2B\	.
.	.	2c\	[2cc\
=54	=54	=54	=54
1G	0.r	1d	2cc\]
.	.	.	2b\
1A	.	2c\	1cc
.	.	2.e\	.
1E	.	.	2b\
.	.	4d\	.
.	.	2B\	2g/
=55	=55	=55	=55
2r	0.r	2.c\	2a/
0F	.	.	2.cc\
.	.	4A/	.
.	.	2A/	.
.	.	.	4b\
.	.	2d\	4a/
.	.	.	4g/
.	.	2c\	2a/
2D\	.	[2d\	2f/
=56	=56	=56	=56
!!linebreak:original
1AA	0.r	2d\]	1e
.	.	2c#i\	.
1D	.	1d	0d
2.G\	.	2B\	.
.	.	2G/	.
4E\	.	.	.
=57	=57	=57	=57
2F\	0.r	2A/	2r
2E\	.	2.c\	2g/
1C	.	.	2a/
.	.	4B\	.
.	.	4A/	2.cc\
.	.	4G/	.
1AA	.	2A/	.
.	.	.	4b\
.	.	2F/	[2a/
=58	=58	=58	=58
1C	0.r	1E	2a/]
.	.	.	2g/
2r	.	1D	2a/
2D\	.	.	2f/
2C/	.	2r	2e/
2E\	.	2G/	2g/
=59	=59	=59	=59
4D\	0.r	2A/	1f
2F\	.	.	.
.	.	2.c\	.
4E\	.	.	.
2.C/	.	.	0e
.	.	4B\	.
.	.	2A/	.
4D\	.	.	.
2E\	.	2G/	.
[2AA/	.	2A/	.
=60	=60	=60	=60
2AA/]	0.r	2E/	2r
2E\	.	2G/	2g/
2D\	.	1F	2a/
2C/	.	.	1cc
1E	.	2E/	.
.	.	2G/	2b\
=61	=61	=61	=61
1AA	0.r	2A/	2cc\
.	.	2c\	2a/
1E	.	2B\	4g/
.	.	.	2g/
.	.	1e	.
.	.	.	4f/
1F	.	.	1a
.	.	2d\	.
=62	=62	=62	=62
2E\	0.r	1e	2g/
2C/	.	.	2.a/
2E\	.	2c\	.
.	.	.	4g/
2D\	.	2.d\	4f/
.	.	.	4e/
2G\	.	.	[1d
.	.	4c\	.
[2GG/	.	4B\	.
.	.	4A/	.
=63	=63	=63	=63
!!linebreak:original
2GG/]	0.r	1.G	2d/]
2C/	.	.	2e/
2BB/	.	.	2d/
2AA/	.	2c\	2.f/
2D\	.	2B\	.
.	.	.	4g/
4C/	.	2A/	[2a/
[4D\	.	.	.
=64	=64	=64	=64
4D\]	0.r	2d\	4a/]
4BB/	.	.	4b\
2AA/	.	2c\	2cc\
1GG	.	2d\	4b\
.	.	.	4g/
.	.	2B\	1g
1D	.	1A	.
.	.	.	2f#i/
=65	=65	=65	=65
0.GGl	0.r	0.Gl	0.gl
!!LO:LB:i:g=z
=66||	=66||	=66||	=66||
*>C	*>C	*>C	*>C
!!section: Agnus Dei III
!!!OMD: Agnus Dei III
*M2/1	*M2/1	*M2/1	*M2/1
*met(C|)	*met(C|)	*met(C|)	*met(C|)
[0E	[0G	[0B	[0g
=67	=67	=67	=67
1E]	0G]	0B]	1g]
1AA	.	.	1e
=68	=68	=68	=68
0AA	0A	0c	0e
=69	=69	=69	=69
0E	0B	0e	0g
=70	=70	=70	=70
!!linebreak:original
[0F	[0A	0d	1f
.	.	.	[1d
=71	=71	=71	=71
1F]	1A]	1D	1d]
1E	1G	[1E	2c/
.	.	.	2B/
=72	=72	=72	=72
[0E	[0G	1E]	1.c
.	.	1C	.
.	.	.	2B/
=73	=73	=73	=73
0E]	0G]	2c\	0G
.	.	1B	.
.	.	4A/	.
.	.	4B\	.
=74	=74	=74	=74
0C	0E	[0c	0g
=75	=75	=75	=75
1AA	1F	1c]	1a
1GG	[1G	1B	[1b
=76	=76	=76	=76
0C	2G/]	1.e	2b\]
.	2E/	.	2a/
.	[1E	.	1a
.	.	4d\	.
.	.	4c\	.
=77	=77	=77	=77
!!pagebreak:original
0E	1E]	1B	1g
.	1C	1c	[1cc
=78	=78	=78	=78
0D	1.F	0d	1cc]
.	.	.	1b
.	2G/	.	.
=79	=79	=79	=79
1F	0A	1c	2a/
.	.	.	1a
1D	.	1d	.
.	.	.	2f/
=80	=80	=80	=80
0E	0G	0B	1e
.	.	.	1b
=81	=81	=81	=81
0AA	1A	0A	2cc\
.	.	.	2a/
.	1c	.	[1a
=82	=82	=82	=82
0r	0B	0E	1a]
.	.	.	1g#i
=83	=83	=83	=83
[0AA	1.A	1r	0a
.	.	[1e	.
.	4G/	.	.
.	4F/	.	.
=84	=84	=84	=84
!!linebreak:original
1AA]	0E	2e\]	0r
.	.	4d\	.
.	.	4c\	.
1GG	.	1B	.
=85	=85	=85	=85
2FF/	0F	0A	0r
2GG/	.	.	.
2AA/	.	.	.
2BB/	.	.	.
=86	=86	=86	=86
0C	1E	1G	0e
.	1C	[1A	.
=87	=87	=87	=87
0r	0D	1A]	0f
.	.	1B	.
=88	=88	=88	=88
0C	1C	1c	1e
.	[1c	1A	1c
=89	=89	=89	=89
0GG	1c]	0G	0d
.	1B	.	.
=90	=90	=90	=90
0C	0A	0E	1c
.	.	.	1cc
=91	=91	=91	=91
!!linebreak:original
1GG	1G	1D	1b
1AA	1F	1C	[1a
=92	=92	=92	=92
0C	0E	1r	2a/]
.	.	.	2g/
.	.	1c	1g
=93	=93	=93	=93
1r	0D	1d	1r
1D	.	[1A	1f
=94	=94	=94	=94
1AA	1C	1A]	1e
1BB	1BB	1G	[1d
=95	=95	=95	=95
1C	0AA	2A/	2d/]
.	.	1E	2c/
1AA	.	.	1c
.	.	2F/	.
=96	=96	=96	=96
1GG	1.E	1G	1B
2AA/	.	1r	2c/
2BB/	2D/	.	[2d/
=97	=97	=97	=97
1GG	1G	1D	2d/]
.	.	.	2B/
1AA	2F/	1C	2A/
.	2E/	.	2G/
=98	=98	=98	=98
!!linebreak:original
1GG	2G/	1D	1B
.	2D/	.	.
1C	1E	2r	1G
.	.	[2G/	.
=99	=99	=99	=99
2BB/	1D	1G]	1d
2GG/	.	.	.
2r	1G	1B	1e
2GG/	.	.	.
=100	=100	=100	=100
1D	1F	1A	1d
1GG	1G	1d	1g
=101	=101	=101	=101
1r	1.A	1c	1.f
1D	.	1d	.
.	2B\	.	[2a/
=102	=102	=102	=102
1C	1c	1e	2a/]
.	.	.	2g/
1E	1G	1c	[1g
=103	=103	=103	=103
0D	0A	[0d	2g/]
.	.	.	2e/
.	.	.	1f#i
=104	=104	=104	=104
1r	[0G	1d]	0g
[1E	.	[1B	.
=105	=105	=105	=105
!!pagebreak:original
1E]	0G]	1B]	0r
1C	.	[1c	.
=106	=106	=106	=106
0C	[0G	2c\]	0e
.	.	4B\	.
.	.	4A/	.
.	.	1G	.
=107	=107	=107	=107
1r	0G]	1B	0e
1C	.	1c	.
=108	=108	=108	=108
1BB	1r	1d	[0f
[1AA	[1A	1c	.
=109	=109	=109	=109
1AA]	1A]	1F	1f]
1GG	1B	[1G	1e
=110	=110	=110	=110
0C	0c	1G]	0e
.	.	1G	.
=111	=111	=111	=111
1.G	1B	2r	1d
.	.	1B	.
.	1G	.	1e
2F\	.	2c\	.
=112	=112	=112	=112
!!linebreak:original
1D	1A	1d	1f
[1C	[1E	[1e	[1g
=113	=113	=113	=113
1C]	1E]	1e]	1g]
1D	1D	1A	1f
=114	=114	=114	=114
1BB	1G	1B	1d
1AA	1A	1c	1c
=115	=115	=115	=115
0D	0F	0A	0d
=116	=116	=116	=116
0AA	0E	1r	1.e
.	.	[1c	.
.	.	.	2f/
=117	=117	=117	=117
0r	1E	2c\]	1g
.	.	4B\	.
.	.	4c\	.
.	1D	1d	[1a
=118	=118	=118	=118
[0AA	1F	1c	1a]
.	1E	[1e	[1cc
=119	=119	=119	=119
!!linebreak:original
0AA_	0A	2e\]	2cc\]
.	.	2d\	2b\
.	.	2c\	1a
.	.	2A/	.
=120	=120	=120	=120
0AA]	[0E	[0c	0a
=121	=121	=121	=121
[0El	0E]	1c]	[0g
.	.	1B	.
=122	=122	=122	=122
0E_	[0El	[0Bl	1g]
.	.	.	1e
=123	=123	=123	=123
*	*	*	*^
0E]	0E]	0B]	0el\	0bl/
*	*	*	*v	*v
==	==	==	==
*-	*-	*-	*-
!!!RDF**kern: l=long note in original notation
!!!RDF**kern: i=editorial accidental
!!!ENC:	Will Watson 14/2/2012
!!!END:	2012/02/14/
!!!EED:	Jesse Rodin
!!!EEV:	2012/03/14/
!!!ONB:	Translated from MusicXML and edited on 2012/03/14/ by Craig Sapp
!!muse2ps: T^@{OPR}^u^@{ONM}{. }@{OTL}^C^@{COM}^i2I100v85,90,85,150Q16
